X:1
T:Julipolskan
R:Polska
C:Robert Bostrm
M:3/4
L:1/8
K:D
|:"D"(3F2A2d2"A"(3e-ec|"G"(3d2B2G2"D"(3F-FA|"G"(3G-GB- (3Bde "D"(3agf|"Em"(3egf (3edB "A"A2|
"G"(3G2E2G2 "D"(3FED|"G"(3 B,DE (3FGA "Em"B2|"G"(3d-dB- (3Bgf "A"(3ece "TO"coda|"A"1 (3aef "D"d4:||2 "A"(3aef "D"d4-|
|:"Bm"(3d2d2B2 "A"(3cde|"D"f12/2-|"G"(3f2b2g2 "D"(3agf|"Em"(3e-eg (3fed "A"(3e-ec|"G"(3Bcd- (3dB-B "A"(3e-ec|
"D"(3deA- (3AB-B "G"(3G-GB|"D"(3 d2f2g2 "G"(3fed|1"A" (3ec-c "D"(d4:|2"A"(3ec-c "D"d4 dacapo||
||coda(3a-a"Bm"d- (3dgf "A"(3 edA |"G"(3 B2d2a2 (3(gg)f |"A"(3ec-c "D"d4||
